app/assets/images/icons/active/bundle.svg

<?xml version="1.0" encoding="UTF-8" standalone="no"?>
<svg width="32px" height="232px" viewBox="0 0 32 232" version="1.1" xmlns="http://www.w3.org/2000/svg" xmlns:xlink="http://www.w3.org/1999/xlink" xmlns:sketch="http://www.bohemiancoding.com/sketch/ns">
    <title>bundle</title>
    <description>Created with Sketch (http://www.bohemiancoding.com/sketch)</description>
    <defs></defs>
    <g id="Graphics" stroke="none" stroke-width="1" fill="none" fill-rule="evenodd" sketch:type="MSPage">
        <path d="M22.2576954,20.217497 L21.7166954,20.737497 L21.7166954,22.542497 L25.8976954,18.504497 L25.8976954,16.701497 L25.3666954,17.213497 L25.3666954,15.032497 L25.8196954,14.600497 L24.4836954,13.133497 L23.6546954,15.639497 L22.8256954,14.741497 L21.4896954,18.768497 L22.2576954,18.030497 L22.2576954,20.217497 L22.2576954,20.217497 L22.2576954,20.217497 L22.2576954,20.217497 Z M23.7006954,16.635497 L23.9136954,16.430497 L23.9136954,18.618497 L23.7006954,18.823497 L23.7006954,16.635497 L23.7006954,16.635497 L23.7006954,16.635497 L23.7006954,16.635497 Z M27.8886954,6.30949703 L14.9246954,3.04949703 C14.8106954,3.02249703 14.7146954,3.00649703 14.6196954,3.00249703 C14.3096954,2.99149703 14.0066954,3.07549703 13.7396954,3.24549703 L3.65969545,9.71049703 C3.22969545,9.98549703 2.97669545,10.467497 3.00169545,10.971497 L3.57769545,22.598497 C3.60669545,23.186497 3.99569545,23.690497 4.56769545,23.881497 L18.7866954,28.651497 C18.9326954,28.701497 19.0896954,28.725497 19.2616954,28.727497 L19.2696954,28.727497 C19.6626954,28.727497 20.0336954,28.573497 20.3166954,28.297497 L28.5186954,20.268497 C28.7916954,20.001497 28.9426954,19.649497 28.9446954,19.276497 L28.9996954,7.70449703 C29.0016954,7.04849703 28.5466954,6.47549703 27.8886954,6.30949703 C27.8886954,6.30949703 28.5466954,6.47549703 27.8886954,6.30949703 L27.8886954,6.30949703 L27.8886954,6.30949703 Z M14.7336954,5.18849703 C15.2726954,5.32549703 15.8116954,5.46149703 16.3496954,5.59649703 C16.6956954,5.68449703 17.0416954,5.77249703 17.3866954,5.86049703 L10.6226954,11.247497 L10.3116954,11.151497 C9.21469545,10.819497 8.11769545,10.489497 7.00769545,10.157497 L14.7336954,5.18849703 L14.7336954,5.18849703 L14.7336954,5.18849703 L14.7336954,5.18849703 Z M5.73169545,21.946497 L5.23969545,12.000497 L9.50169545,13.284497 L9.50169545,17.102497 L10.6196954,17.091497 L11.2776954,17.524497 L12.2766954,17.413497 L13.9586954,18.405497 L13.9006954,14.604497 L17.8986954,15.803497 L18.0186954,26.061497 L5.73169545,21.946497 L5.73169545,21.946497 L5.73169545,21.946497 L5.73169545,21.946497 Z M18.8196954,13.708497 C17.5566954,13.333497 16.3166954,12.961497 15.0776954,12.588497 L21.8396954,6.98149703 L25.6936954,7.95249703 L18.8196954,13.708497 L18.8196954,13.708497 L18.8196954,13.708497 L18.8196954,13.708497 Z M26.7866954,18.903497 L20.3456954,25.206497 L20.2306954,15.522497 L26.8276954,9.99849703 L26.7866954,18.903497 L26.7866954,18.903497 Z M26.7866954,18.903497" id="Imported-Layers" fill="#3B444F" sketch:type="MSShapeGroup"></path>
        <path d="M22.2576954,60.215957 L21.7166954,60.735957 L21.7166954,62.540957 L25.8976954,58.502957 L25.8976954,56.699957 L25.3666954,57.211957 L25.3666954,55.030957 L25.8196954,54.598957 L24.4836954,53.131957 L23.6546954,55.637957 L22.8256954,54.739957 L21.4896954,58.766957 L22.2576954,58.028957 L22.2576954,60.215957 L22.2576954,60.215957 L22.2576954,60.215957 L22.2576954,60.215957 Z M23.7006954,56.633957 L23.9136954,56.428957 L23.9136954,58.616957 L23.7006954,58.821957 L23.7006954,56.633957 L23.7006954,56.633957 L23.7006954,56.633957 L23.7006954,56.633957 Z M27.8886954,46.307957 L14.9246954,43.047957 C14.8106954,43.020957 14.7146954,43.004957 14.6196954,43.000957 C14.3096954,42.989957 14.0066954,43.073957 13.7396954,43.243957 L3.65969545,49.708957 C3.22969545,49.983957 2.97669545,50.465957 3.00169545,50.969957 L3.57769545,62.596957 C3.60669545,63.184957 3.99569545,63.688957 4.56769545,63.879957 L18.7866954,68.649957 C18.9326954,68.699957 19.0896954,68.723957 19.2616954,68.725957 L19.2696954,68.725957 C19.6626954,68.725957 20.0336954,68.571957 20.3166954,68.295957 L28.5186954,60.266957 C28.7916954,59.999957 28.9426954,59.647957 28.9446954,59.274957 L28.9996954,47.702957 C29.0016954,47.046957 28.5466954,46.473957 27.8886954,46.307957 C27.8886954,46.307957 28.5466954,46.473957 27.8886954,46.307957 L27.8886954,46.307957 L27.8886954,46.307957 Z M14.7336954,45.186957 C15.2726954,45.323957 15.8116954,45.459957 16.3496954,45.594957 C16.6956954,45.682957 17.0416954,45.770957 17.3866954,45.858957 L10.6226954,51.245957 L10.3116954,51.149957 C9.21469545,50.817957 8.11769545,50.487957 7.00769545,50.155957 L14.7336954,45.186957 L14.7336954,45.186957 L14.7336954,45.186957 L14.7336954,45.186957 Z M5.73169545,61.944957 L5.23969545,51.998957 L9.50169545,53.282957 L9.50169545,57.100957 L10.6196954,57.089957 L11.2776954,57.522957 L12.2766954,57.411957 L13.9586954,58.403957 L13.9006954,54.602957 L17.8986954,55.801957 L18.0186954,66.059957 L5.73169545,61.944957 L5.73169545,61.944957 L5.73169545,61.944957 L5.73169545,61.944957 Z M18.8196954,53.706957 C17.5566954,53.331957 16.3166954,52.959957 15.0776954,52.586957 L21.8396954,46.979957 L25.6936954,47.950957 L18.8196954,53.706957 L18.8196954,53.706957 L18.8196954,53.706957 L18.8196954,53.706957 Z M26.7866954,58.901957 L20.3456954,65.204957 L20.2306954,55.520957 L26.8276954,49.996957 L26.7866954,58.901957 L26.7866954,58.901957 Z M26.7866954,58.901957" id="Imported-Layers-copy" fill="#67737B" sketch:type="MSShapeGroup"></path>
        <path d="M22.2576954,100.214417 L21.7166954,100.734417 L21.7166954,102.539417 L25.8976954,98.501417 L25.8976954,96.698417 L25.3666954,97.210417 L25.3666954,95.029417 L25.8196954,94.597417 L24.4836954,93.130417 L23.6546954,95.636417 L22.8256954,94.738417 L21.4896954,98.765417 L22.2576954,98.027417 L22.2576954,100.214417 L22.2576954,100.214417 L22.2576954,100.214417 L22.2576954,100.214417 Z M23.7006954,96.632417 L23.9136954,96.427417 L23.9136954,98.615417 L23.7006954,98.820417 L23.7006954,96.632417 L23.7006954,96.632417 L23.7006954,96.632417 L23.7006954,96.632417 Z M27.8886954,86.306417 L14.9246954,83.046417 C14.8106954,83.019417 14.7146954,83.003417 14.6196954,82.999417 C14.3096954,82.988417 14.0066954,83.072417 13.7396954,83.242417 L3.65969545,89.707417 C3.22969545,89.982417 2.97669545,90.464417 3.00169545,90.968417 L3.57769545,102.595417 C3.60669545,103.183417 3.99569545,103.687417 4.56769545,103.878417 L18.7866954,108.648417 C18.9326954,108.698417 19.0896954,108.722417 19.2616954,108.724417 L19.2696954,108.724417 C19.6626954,108.724417 20.0336954,108.570417 20.3166954,108.294417 L28.5186954,100.265417 C28.7916954,99.998417 28.9426954,99.646417 28.9446954,99.273417 L28.9996954,87.701417 C29.0016954,87.045417 28.5466954,86.472417 27.8886954,86.306417 C27.8886954,86.306417 28.5466954,86.472417 27.8886954,86.306417 L27.8886954,86.306417 L27.8886954,86.306417 Z M14.7336954,85.185417 C15.2726954,85.322417 15.8116954,85.458417 16.3496954,85.593417 C16.6956954,85.681417 17.0416954,85.769417 17.3866954,85.857417 L10.6226954,91.244417 L10.3116954,91.148417 C9.21469545,90.816417 8.11769545,90.486417 7.00769545,90.154417 L14.7336954,85.185417 L14.7336954,85.185417 L14.7336954,85.185417 L14.7336954,85.185417 Z M5.73169545,101.943417 L5.23969545,91.997417 L9.50169545,93.281417 L9.50169545,97.099417 L10.6196954,97.088417 L11.2776954,97.521417 L12.2766954,97.410417 L13.9586954,98.402417 L13.9006954,94.601417 L17.8986954,95.800417 L18.0186954,106.058417 L5.73169545,101.943417 L5.73169545,101.943417 L5.73169545,101.943417 L5.73169545,101.943417 Z M18.8196954,93.705417 C17.5566954,93.330417 16.3166954,92.958417 15.0776954,92.585417 L21.8396954,86.978417 L25.6936954,87.949417 L18.8196954,93.705417 L18.8196954,93.705417 L18.8196954,93.705417 L18.8196954,93.705417 Z M26.7866954,98.900417 L20.3456954,105.203417 L20.2306954,95.519417 L26.8276954,89.995417 L26.7866954,98.900417 L26.7866954,98.900417 Z M26.7866954,98.900417" id="Imported-Layers-copy-2" fill="#FFFFFF" sketch:type="MSShapeGroup"></path>
        <path d="M22.2576954,140.215957 L21.7166954,140.735957 L21.7166954,142.540957 L25.8976954,138.502957 L25.8976954,136.699957 L25.3666954,137.211957 L25.3666954,135.030957 L25.8196954,134.598957 L24.4836954,133.131957 L23.6546954,135.637957 L22.8256954,134.739957 L21.4896954,138.766957 L22.2576954,138.028957 L22.2576954,140.215957 L22.2576954,140.215957 L22.2576954,140.215957 L22.2576954,140.215957 Z M23.7006954,136.633957 L23.9136954,136.428957 L23.9136954,138.616957 L23.7006954,138.821957 L23.7006954,136.633957 L23.7006954,136.633957 L23.7006954,136.633957 L23.7006954,136.633957 Z M27.8886954,126.307957 L14.9246954,123.047957 C14.8106954,123.020957 14.7146954,123.004957 14.6196954,123.000957 C14.3096954,122.989957 14.0066954,123.073957 13.7396954,123.243957 L3.65969545,129.708957 C3.22969545,129.983957 2.97669545,130.465957 3.00169545,130.969957 L3.57769545,142.596957 C3.60669545,143.184957 3.99569545,143.688957 4.56769545,143.879957 L18.7866954,148.649957 C18.9326954,148.699957 19.0896954,148.723957 19.2616954,148.725957 L19.2696954,148.725957 C19.6626954,148.725957 20.0336954,148.571957 20.3166954,148.295957 L28.5186954,140.266957 C28.7916954,139.999957 28.9426954,139.647957 28.9446954,139.274957 L28.9996954,127.702957 C29.0016954,127.046957 28.5466954,126.473957 27.8886954,126.307957 C27.8886954,126.307957 28.5466954,126.473957 27.8886954,126.307957 L27.8886954,126.307957 L27.8886954,126.307957 Z M14.7336954,125.186957 C15.2726954,125.323957 15.8116954,125.459957 16.3496954,125.594957 C16.6956954,125.682957 17.0416954,125.770957 17.3866954,125.858957 L10.6226954,131.245957 L10.3116954,131.149957 C9.21469545,130.817957 8.11769545,130.487957 7.00769545,130.155957 L14.7336954,125.186957 L14.7336954,125.186957 L14.7336954,125.186957 L14.7336954,125.186957 Z M5.73169545,141.944957 L5.23969545,131.998957 L9.50169545,133.282957 L9.50169545,137.100957 L10.6196954,137.089957 L11.2776954,137.522957 L12.2766954,137.411957 L13.9586954,138.403957 L13.9006954,134.602957 L17.8986954,135.801957 L18.0186954,146.059957 L5.73169545,141.944957 L5.73169545,141.944957 L5.73169545,141.944957 L5.73169545,141.944957 Z M18.8196954,133.706957 C17.5566954,133.331957 16.3166954,132.959957 15.0776954,132.586957 L21.8396954,126.979957 L25.6936954,127.950957 L18.8196954,133.706957 L18.8196954,133.706957 L18.8196954,133.706957 L18.8196954,133.706957 Z M26.7866954,138.901957 L20.3456954,145.204957 L20.2306954,135.520957 L26.8276954,129.996957 L26.7866954,138.901957 L26.7866954,138.901957 Z M26.7866954,138.901957" id="Imported-Layers-copy-3" fill="#206FAC" sketch:type="MSShapeGroup"></path>
    </g>
</svg>

<svg width="32" height="232" viewBox="0 0 32 232" xmlns="http://www.w3.org/2000/svg" xmlns:sketch="http://www.bohemiancoding.com/sketch/ns"><title>bundle</title><g sketch:type="MSPage" fill="none"><path d="M22.258 20.217l-.541.52v1.805l4.181-4.038v-1.803l-.531.512v-2.181l.453-.432-1.336-1.467-.829 2.506-.829-.898-1.336 4.027.768-.738v2.187zm1.443-3.582l.213-.205v2.188l-.213.205v-2.188zm4.188-10.326l-12.964-3.26-.305-.047c-.31-.011-.613.073-.88.243l-10.08 6.465c-.43.275-.683.757-.658 1.261l.576 11.627c.029.588.418 1.092.99 1.283l14.219 4.77c.146.05.303.074.475.076h.008c.393 0 .764-.154 1.047-.43l8.202-8.029c.273-.267.424-.619.426-.992l.055-11.572c.002-.656-.453-1.229-1.111-1.395zm-13.155-1.121l1.616.408 1.037.264-6.764 5.387-.311-.096c-1.097-.332-2.194-.662-3.304-.994l7.726-4.969zm-9.002 16.758l-.492-9.946 4.262 1.284v3.818l1.118-.011.658.433.999-.111 1.682.992-.058-3.801 3.998 1.199.12 10.258-12.287-4.115zm13.088-8.238c-1.263-.375-2.503-.747-3.742-1.12l6.762-5.607 3.854.971-6.874 5.756zm7.967 5.195l-6.441 6.303-.115-9.684 6.597-5.524-.041 8.905zm0 0" fill="#3B444F" sketch:type="MSShapeGroup"/><path d="M22.258 60.216l-.541.52v1.805l4.181-4.038v-1.803l-.531.512v-2.181l.453-.432-1.336-1.467-.829 2.506-.829-.898-1.336 4.027.768-.738v2.187zm1.443-3.582l.213-.205v2.188l-.213.205v-2.188zm4.188-10.326l-12.964-3.26-.305-.047c-.31-.011-.613.073-.88.243l-10.08 6.465c-.43.275-.683.757-.658 1.261l.576 11.627c.029.588.418 1.092.99 1.283l14.219 4.77c.146.05.303.074.475.076h.008c.393 0 .764-.154 1.047-.43l8.202-8.029c.273-.267.424-.619.426-.992l.055-11.572c.002-.656-.453-1.229-1.111-1.395zm-13.155-1.121l1.616.408 1.037.264-6.764 5.387-.311-.096c-1.097-.332-2.194-.662-3.304-.994l7.726-4.969zm-9.002 16.758l-.492-9.946 4.262 1.284v3.818l1.118-.011.658.433.999-.111 1.682.992-.058-3.801 3.998 1.199.12 10.258-12.287-4.115zm13.088-8.238c-1.263-.375-2.503-.747-3.742-1.12l6.762-5.607 3.854.971-6.874 5.756zm7.967 5.195l-6.441 6.303-.115-9.684 6.597-5.524-.041 8.905zm0 0" fill="#67737B" sketch:type="MSShapeGroup"/><path d="M22.258 100.214l-.541.52v1.805l4.181-4.038v-1.803l-.531.512v-2.181l.453-.432-1.336-1.467-.829 2.506-.829-.898-1.336 4.027.768-.738v2.187zm1.443-3.582l.213-.205v2.188l-.213.205v-2.188zm4.188-10.326l-12.964-3.26-.305-.047c-.31-.011-.613.073-.88.243l-10.08 6.465c-.43.275-.683.757-.658 1.261l.576 11.627c.029.588.418 1.092.99 1.283l14.219 4.77c.146.05.303.074.475.076h.008c.393 0 .764-.154 1.047-.43l8.202-8.029c.273-.267.424-.619.426-.992l.055-11.572c.002-.656-.453-1.229-1.111-1.395zm-13.155-1.121l1.616.408 1.037.264-6.764 5.387-.311-.096c-1.097-.332-2.194-.662-3.304-.994l7.726-4.969zm-9.002 16.758l-.492-9.946 4.262 1.284v3.818l1.118-.011.658.433.999-.111 1.682.992-.058-3.801 3.998 1.199.12 10.258-12.287-4.115zm13.088-8.238c-1.263-.375-2.503-.747-3.742-1.12l6.762-5.607 3.854.971-6.874 5.756zm7.967 5.195l-6.441 6.303-.115-9.684 6.597-5.524-.041 8.905zm0 0" fill="#fff" sketch:type="MSShapeGroup"/><path d="M22.258 140.216l-.541.52v1.805l4.181-4.038v-1.803l-.531.512v-2.181l.453-.432-1.336-1.467-.829 2.506-.829-.898-1.336 4.027.768-.738v2.187zm1.443-3.582l.213-.205v2.188l-.213.205v-2.188zm4.188-10.326l-12.964-3.26-.305-.047c-.31-.011-.613.073-.88.243l-10.08 6.465c-.43.275-.683.757-.658 1.261l.576 11.627c.029.588.418 1.092.99 1.283l14.219 4.77c.146.05.303.074.475.076h.008c.393 0 .764-.154 1.047-.43l8.202-8.029c.273-.267.424-.619.426-.992l.055-11.572c.002-.656-.453-1.229-1.111-1.395zm-13.155-1.121l1.616.408 1.037.264-6.764 5.387-.311-.096c-1.097-.332-2.194-.662-3.304-.994l7.726-4.969zm-9.002 16.758l-.492-9.946 4.262 1.284v3.818l1.118-.011.658.433.999-.111 1.682.992-.058-3.801 3.998 1.199.12 10.258-12.287-4.115zm13.088-8.238c-1.263-.375-2.503-.747-3.742-1.12l6.762-5.607 3.854.971-6.874 5.756zm7.967 5.195l-6.441 6.303-.115-9.684 6.597-5.524-.041 8.905zm0 0" fill="#206FAC" sketch:type="MSShapeGroup"/></g></svg>
